static/Carla.svg

<svg fill="none" height="125" viewBox="0 0 345 125" width="345" xmlns="http://www.w3.org/2000/svg"><path d="m106.477 67.3813c0 1.8738.212 4.08.635 6.6187h-5.712c.121-.3627.181-.7556.181-1.1787.061-.4231.121-.8462.182-1.2693-1.693 1.9342-3.9292 2.9013-6.7097 2.9013-3.5662 0-6.4373-1.2995-8.6133-3.8986-2.1156-2.5991-3.1733-5.4703-3.1733-8.6134 0-3.2035 1.0275-6.1049 3.0826-8.704 2.176-2.5991 4.9263-3.8986 8.2507-3.8986s5.682.9066 7.072 2.72c0-.544-.091-1.088-.272-1.632l5.712-1.088c-.423 2.5386-.635 4.7449-.635 6.6186zm-6.346-12.6026c-1.3301-1.8134-3.0528-2.72-5.1683-2.72-2.0551 0-3.6871.9066-4.896 2.72-1.3298 1.5715-1.9947 3.9289-1.9947 7.072s.6649 5.5306 1.9947 7.1626c1.2089 1.7529 2.8409 2.6294 4.896 2.6294 2.1155 0 3.808-.8463 5.0773-2.5387 1.33-1.6924 1.995-4.1102 1.995-7.2533s-.635-5.5005-1.904-7.072zm14.626 19.2213c.363-2.176.544-4.3822.544-6.6187v-10.336c0-2.176-.181-4.3822-.544-6.6186l5.712-1.088c-.181.6044-.332 1.5715-.453 2.9013 1.571-1.9342 3.536-2.9013 5.893-2.9013 1.33 0 2.599.3022 3.808.9066v4.9867h-.181c-1.209-2.1156-2.72-3.1733-4.533-3.1733-1.753 0-3.174.9369-4.262 2.8106-.665.9067-.997 2.4783-.997 4.7147v7.7973c0 2.3574.242 4.5636.725 6.6187zm19.192 0c.362-2.176.544-4.3822.544-6.6187v-19.4026c0-2.1156-.182-4.3218-.544-6.6187l5.712-1.088c-.484 1.9947-.726 4.2009-.726 6.6187v20.4906c0 2.3574.242 4.5636.726 6.6187zm34.884-6.6187c0 1.8738.211 4.08.634 6.6187h-5.712c.121-.3627.182-.7556.182-1.1787.06-.4231.121-.8462.181-1.2693-1.692 1.9342-3.929 2.9013-6.709 2.9013-3.566 0-6.438-1.2995-8.614-3.8986-2.115-2.5991-3.173-5.4703-3.173-8.6134 0-3.2035 1.028-6.1049 3.083-8.704 2.176-2.5991 4.926-3.8986 8.25-3.8986 3.325 0 5.682.9066 7.072 2.72 0-.544-.09-1.088-.272-1.632l5.712-1.088c-.423 2.5386-.634 4.7449-.634 6.6186zm-6.347-12.6026c-1.33-1.8134-3.052-2.72-5.168-2.72-2.055 0-3.687.9066-4.896 2.72-1.33 1.5715-1.995 3.9289-1.995 7.072s.665 5.5306 1.995 7.1626c1.209 1.7529 2.841 2.6294 4.896 2.6294 2.116 0 3.808-.8463 5.077-2.5387 1.33-1.6924 1.995-4.1102 1.995-7.2533s-.635-5.5005-1.904-7.072z" fill="#000"/><path d="m0 0h81v100h-81z" fill="#000"/><path d="m47.69 14.714-.166-4.814c0-.44267.1383-.664.415-.664.1107 0 .3043.47033.581 1.411.2767.9407.415 2.4347.415 4.482s-.0277 3.4583-.083 4.233c2.2133-.4427 4.2053-.664 5.976-.664 4.98 0 8.8533 1.3003 11.62 3.901 3.0987 2.7667 4.648 6.5017 4.648 11.205v.332c0 .9407-.3873 1.411-1.162 1.411-.4427 0-.9407-.166-1.494-.498-3.7627-2.2687-7.221-4.233-10.375-5.893-3.154-1.7153-6.391-3.0987-9.711-4.15-.8853 7.6913-2.3793 15.77-4.482 24.236-2.5453 9.5727-5.229 17.3193-8.051 23.24.4427.0553 1.162.083 2.158.083 6.0313 0 12.1457-1.5493 18.343-4.648 6.1973-3.154 10.873-7.1933 14.027-12.118l.747-.996c.0553.0553.083.2213.083.498s-.083.581-.249.913c-3.2093 5.5333-8.5213 10.209-15.936 14.027-7.0273 3.486-13.944 5.2843-20.75 5.395-3.5967 6.4187-6.9443 9.628-10.043 9.628-.498 0-.747-.166-.747-.498s.166-.5257.498-.581l1.577-.332c2.5453-.8853 5.146-3.6243 7.802-8.217-5.6993-.166-10.209-1.743-13.529-4.731s-4.98-7.5253-4.98-13.612c0-6.142 2.3793-12.5883 7.138-19.339 4.7587-6.806 10.292-11.8137 16.6-15.023-1.494-.166-3.0157-.249-4.565-.249-1.494 0-3.5967.332-6.308.996-2.656.6087-5.063 1.5493-7.221 2.822-3.2093 1.8813-4.814 3.984-4.814 6.308 0 .2767.0277.498.083.664v.664c0 .7193-.249 1.079-.747 1.079-.664 0-1.162-.4427-1.494-1.328-.4427-.996-.664-1.826-.664-2.49 0-3.2647 2.9327-5.7823 8.798-7.553 4.316-1.2727 8.6043-1.909 12.865-1.909 1.162 0 2.905.1383 5.229.415 3.0987-1.328 5.727-2.241 7.885-2.739.0553-1.162.083-2.7943.083-4.897zm-28.303 40.836c0 4.98 1.3833 8.881 4.15 11.703 2.7667 3.0433 6.5847 4.7587 11.454 5.146 3.0433-6.1973 5.644-13.6673 7.802-22.41s3.652-17.181 4.482-25.315c-2.158-.6087-4.5373-1.1343-7.138-1.577-6.0313 2.8773-10.956 7.3317-14.774 13.363-3.984 6.142-5.976 12.5053-5.976 19.09zm48.472-24.568c.3873 0 .581-.2767.581-.83s-.166-1.2173-.498-1.992c-1.4387-2.49-3.7073-4.3437-6.806-5.561s-6.2527-1.826-9.462-1.826c-.664 0-1.66.0553-2.988.166l-.249 2.822c6.4187 1.328 12.533 3.5967 18.343 6.806.5533.2767.913.415 1.079.415zm-20.418-9.96c-2.324.3873-4.316.913-5.976 1.577 3.818.6087 5.7823.913 5.893.913.0553-.5533.083-1.3833.083-2.49z" fill="#fff"/><path d="m272.808 78c.363-2.176.544-4.3822.544-6.6187v-19.4026c0-2.1156-.181-4.3218-.544-6.6187l5.712-1.088c-.484 1.9947-.725 4.2009-.725 6.6187v20.4906c0 2.3574.241 4.5636.725 6.6187zm35.156-6.6187c0 2.5991.212 4.8054.635 6.6187h-5.712c.06-.3627.091-.7556.091-1.1787.06-.4231.151-.8462.272-1.2693-1.632 1.9342-4.02 2.9013-7.163 2.9013s-5.621-1.1786-7.435-3.536c-1.39-1.7529-2.085-4.0195-2.085-6.8v-7.072c0-2.176-.181-4.3822-.544-6.6186l5.712-1.088c-.484 1.9946-.725 4.2009-.725 6.6186v8.16c0 2.176.332 3.7778.997 4.8054 1.148 1.8133 2.901 2.72 5.259 2.72 4.17 0 6.256-2.5085 6.256-7.5254v-7.072c0-2.176-.212-4.3822-.635-6.6186l5.712-1.088c-.423 1.9946-.635 4.2009-.635 6.6186zm8.141 6.6187c.363-2.176.544-4.3822.544-6.6187v-10.336c0-2.176-.181-4.3822-.544-6.6186l5.712-1.088c-.484 1.9946-.725 4.2009-.725 6.6186v11.424c0 2.3574.241 4.5636.725 6.6187zm2.811-27.8347c-.786 0-1.451-.272-1.995-.816-.544-.6044-.816-1.2995-.816-2.0853s.242-1.5111.725-2.176c.665-.544 1.36-.816 2.086-.816.725 0 1.39.272 1.994.816.605.544.907 1.2391.907 2.0853 0 .7858-.302 1.4809-.907 2.0854-.544.6044-1.209.9066-1.994.9066zm21.012 8.976c-.907-2.0551-2.267-3.0826-4.08-3.0826-.786 0-1.511.2115-2.176.6346-.665.3627-.998 1.0578-.998 2.0854 0 .9671.756 1.904 2.267 2.8106l4.08 2.448c2.78 1.632 4.171 3.7476 4.171 6.3467 0 2.5387-.877 4.5333-2.63 5.984-1.753 1.3902-3.687 2.0853-5.802 2.0853-2.539-.1209-4.111-.3626-4.715-.7253-1.33-.8462-2.267-1.5413-2.811-2.0853v-5.8027h.182c1.39 3.8684 3.808 5.8027 7.253 5.8027 1.33 0 2.418-.4231 3.264-1.2694.846-.8462 1.269-1.9342 1.269-3.264 0-1.3902-.755-2.5386-2.266-3.4453l-3.536-2.0853c-3.023-1.8134-4.534-3.9894-4.534-6.528 0-1.7529.726-3.2338 2.176-4.4427 1.088-.8462 2.539-1.2693 4.352-1.2693 1.814 0 3.385.4231 4.715 1.2693v4.5333z" fill="#000"/><path d="m186 0h81v100h-81z" fill="#000"/><path d="m271.763 73.308c0 2.8773-1.771 5.2567-5.312 7.138-2.933 1.5493-6.114 2.324-9.545 2.324-3.375 0-7.11-.8853-11.205-2.656-4.095-1.7153-9.075-4.1777-14.94-7.387s-9.877-5.2843-12.035-6.225c-3.265 3.7627-6.502 6.64-9.711 8.632-3.154 2.0473-6.834 3.071-11.039 3.071-2.269 0-4.537-.8023-6.806-2.407s-3.403-3.486-3.403-5.644c0-3.0433 1.522-5.3397 4.565-6.889 2.435-1.2727 5.34-1.909 8.715-1.909s7.636.8023 12.782 2.407c1.715-2.324 3.514-5.2567 5.395-8.798-.387.0553-.996.083-1.826.083-11.62 0-17.43-4.1223-17.43-12.367 0-4.3713 2.324-7.802 6.972-10.292.221-.166.415-.249.581-.249.221 0 .332.083.332.249 0 .1107-.028.1937-.083.249-3.486 1.2727-5.229 3.9287-5.229 7.968 0 3.984 1.937 7.221 5.81 9.711 3.32 2.158 7.166 3.2647 11.537 3.32 1.217-2.2687 3.32-6.6123 6.308-13.031s5.506-11.1497 7.553-14.193c4.814-7.1933 9.96-10.79 15.438-10.79.609 0 .913.083.913.249s-.304.249-.913.249c-5.257 0-10.264 3.7073-15.023 11.122-1.549 2.49-3.873 7.055-6.972 13.695-3.099 6.5847-5.146 10.8177-6.142 12.699 1.771 0 3.569-.166 5.395-.498.387-.4427 1.19-2.1027 2.407-4.98 1.051-2.822 1.743-4.5927 2.075-5.312 7.747-17.7067 16.379-26.56 25.896-26.56 1.937 0 3.486.664 4.648 1.992s1.743 3.0157 1.743 5.063c0 8.2447-9.019 16.9873-27.058 26.228-2.324 1.2173-3.873 1.992-4.648 2.324-.719.2767-1.217.498-1.494.664-.443.2213-1.3.6087-2.573 1.162-.443.7747-1.522 2.49-3.237 5.146-1.66 2.6007-3.154 4.7863-4.482 6.557l21.331 8.3c8.743 3.32 15.881 4.98 21.414 4.98 5.589 0 8.383-1.577 8.383-4.731 0-2.0473-.941-4.5097-2.822-7.387.996.6087 1.826 1.577 2.49 2.905.83 1.3833 1.245 2.656 1.245 3.818zm-9.462-51.128c0-1.2173-.498-2.1027-1.494-2.656-.941-.5533-2.075-.83-3.403-.83-6.197 0-13.889 7.885-23.074 23.655-2.711 4.648-4.759 8.051-6.142 10.209 5.367-1.8813 12.118-6.1143 20.252-12.699 9.241-7.47 13.861-13.363 13.861-17.679zm-63.246 51.294c-.775 0-1.162-.1107-1.162-.332 0-.166.387-.249 1.162-.249 5.146 0 9.877-2.822 14.193-8.466-5.091-1.66-9.075-2.49-11.952-2.49-2.822 0-5.506.581-8.051 1.743s-3.818 2.8497-3.818 5.063c0 2.2687 1.079 4.0947 3.237 5.478 1.715 1.2173 3.901 1.826 6.557 1.826s6.004-1.0513 10.043-3.154 6.889-4.316 8.549-6.64c-.775-.498-1.992-1.0237-3.652-1.577-4.537 5.8653-9.573 8.798-15.106 8.798zm26.809-19.173c-2.601.332-4.427.5257-5.478.581-1.771 3.2093-3.652 6.2527-5.644 9.13.553.2213 1.798.6087 3.735 1.162.775-.7747 3.237-4.399 7.387-10.873z" fill="#fff"/><circle cx="318.5" cy="47.5" fill="#fff" r="3.5"/><path d="m324.5 43-9 6v3l9-6.5z" fill="#000"/></svg>

<svg width="345" height="125" viewBox="0 0 345 125" fill="none" xmlns="http://www.w3.org/2000/svg">
<path d="M106.477 67.3813C106.477 69.2551 106.689 71.4613 107.112 74H101.4C101.521 73.6373 101.581 73.2444 101.581 72.8213C101.642 72.3982 101.702 71.9751 101.763 71.552C100.07 73.4862 97.8338 74.4533 95.0533 74.4533C91.4871 74.4533 88.616 73.1538 86.44 70.5547C84.3244 67.9556 83.2667 65.0844 83.2667 61.9413C83.2667 58.7378 84.2942 55.8364 86.3493 53.2373C88.5253 50.6382 91.2756 49.3387 94.6 49.3387C97.9244 49.3387 100.282 50.2453 101.672 52.0587C101.672 51.5147 101.581 50.9707 101.4 50.4267L107.112 49.3387C106.689 51.8773 106.477 54.0836 106.477 55.9573V67.3813ZM100.131 54.7787C98.8009 52.9653 97.0782 52.0587 94.9627 52.0587C92.9076 52.0587 91.2756 52.9653 90.0667 54.7787C88.7369 56.3502 88.072 58.7076 88.072 61.8507C88.072 64.9938 88.7369 67.3813 90.0667 69.0133C91.2756 70.7662 92.9076 71.6427 94.9627 71.6427C97.0782 71.6427 98.7707 70.7964 100.04 69.104C101.37 67.4116 102.035 64.9938 102.035 61.8507C102.035 58.7076 101.4 56.3502 100.131 54.7787ZM114.757 74C115.12 71.824 115.301 69.6178 115.301 67.3813V57.0453C115.301 54.8693 115.12 52.6631 114.757 50.4267L120.469 49.3387C120.288 49.9431 120.137 50.9102 120.016 52.24C121.587 50.3058 123.552 49.3387 125.909 49.3387C127.239 49.3387 128.508 49.6409 129.717 50.2453V55.232H129.536C128.327 53.1164 126.816 52.0587 125.003 52.0587C123.25 52.0587 121.829 52.9956 120.741 54.8693C120.076 55.776 119.744 57.3476 119.744 59.584V67.3813C119.744 69.7387 119.986 71.9449 120.469 74H114.757ZM133.949 74C134.311 71.824 134.493 69.6178 134.493 67.3813V47.9787C134.493 45.8631 134.311 43.6569 133.949 41.36L139.661 40.272C139.177 42.2667 138.935 44.4729 138.935 46.8907V67.3813C138.935 69.7387 139.177 71.9449 139.661 74H133.949ZM168.833 67.3813C168.833 69.2551 169.044 71.4613 169.467 74H163.755C163.876 73.6373 163.937 73.2444 163.937 72.8213C163.997 72.3982 164.058 71.9751 164.118 71.552C162.426 73.4862 160.189 74.4533 157.409 74.4533C153.843 74.4533 150.971 73.1538 148.795 70.5547C146.68 67.9556 145.622 65.0844 145.622 61.9413C145.622 58.7378 146.65 55.8364 148.705 53.2373C150.881 50.6382 153.631 49.3387 156.955 49.3387C160.28 49.3387 162.637 50.2453 164.027 52.0587C164.027 51.5147 163.937 50.9707 163.755 50.4267L169.467 49.3387C169.044 51.8773 168.833 54.0836 168.833 55.9573V67.3813ZM162.486 54.7787C161.156 52.9653 159.434 52.0587 157.318 52.0587C155.263 52.0587 153.631 52.9653 152.422 54.7787C151.092 56.3502 150.427 58.7076 150.427 61.8507C150.427 64.9938 151.092 67.3813 152.422 69.0133C153.631 70.7662 155.263 71.6427 157.318 71.6427C159.434 71.6427 161.126 70.7964 162.395 69.104C163.725 67.4116 164.39 64.9938 164.39 61.8507C164.39 58.7076 163.755 56.3502 162.486 54.7787Z" fill="black"/>
<rect width="81" height="100" fill="black"/>
<path d="M47.69 14.714L47.524 9.9C47.524 9.45733 47.6623 9.236 47.939 9.236C48.0497 9.236 48.2433 9.70633 48.52 10.647C48.7967 11.5877 48.935 13.0817 48.935 15.129C48.935 17.1763 48.9073 18.5873 48.852 19.362C51.0653 18.9193 53.0573 18.698 54.828 18.698C59.808 18.698 63.6813 19.9983 66.448 22.599C69.5467 25.3657 71.096 29.1007 71.096 33.804V34.136C71.096 35.0767 70.7087 35.547 69.934 35.547C69.4913 35.547 68.9933 35.381 68.44 35.049C64.6773 32.7803 61.219 30.816 58.065 29.156C54.911 27.4407 51.674 26.0573 48.354 25.006C47.4687 32.6973 45.9747 40.776 43.872 49.242C41.3267 58.8147 38.643 66.5613 35.821 72.482C36.2637 72.5373 36.983 72.565 37.979 72.565C44.0103 72.565 50.1247 71.0157 56.322 67.917C62.5193 64.763 67.195 60.7237 70.349 55.799L71.096 54.803C71.1513 54.8583 71.179 55.0243 71.179 55.301C71.179 55.5777 71.096 55.882 70.93 56.214C67.7207 61.7473 62.4087 66.423 54.994 70.241C47.9667 73.727 41.05 75.5253 34.244 75.636C30.6473 82.0547 27.2997 85.264 24.201 85.264C23.703 85.264 23.454 85.098 23.454 84.766C23.454 84.434 23.62 84.2403 23.952 84.185L25.529 83.853C28.0743 82.9677 30.675 80.2287 33.331 75.636C27.6317 75.47 23.122 73.893 19.802 70.905C16.482 67.917 14.822 63.3797 14.822 57.293C14.822 51.151 17.2013 44.7047 21.96 37.954C26.7187 31.148 32.252 26.1403 38.56 22.931C37.066 22.765 35.5443 22.682 33.995 22.682C32.501 22.682 30.3983 23.014 27.687 23.678C25.031 24.2867 22.624 25.2273 20.466 26.5C17.2567 28.3813 15.652 30.484 15.652 32.808C15.652 33.0847 15.6797 33.306 15.735 33.472V34.136C15.735 34.8553 15.486 35.215 14.988 35.215C14.324 35.215 13.826 34.7723 13.494 33.887C13.0513 32.891 12.83 32.061 12.83 31.397C12.83 28.1323 15.7627 25.6147 21.628 23.844C25.944 22.5713 30.2323 21.935 34.493 21.935C35.655 21.935 37.398 22.0733 39.722 22.35C42.8207 21.022 45.449 20.109 47.607 19.611C47.6623 18.449 47.69 16.8167 47.69 14.714ZM19.387 55.55C19.387 60.53 20.7703 64.431 23.537 67.253C26.3037 70.2963 30.1217 72.0117 34.991 72.399C38.0343 66.2017 40.635 58.7317 42.793 49.989C44.951 41.2463 46.445 32.808 47.275 24.674C45.117 24.0653 42.7377 23.5397 40.137 23.097C34.1057 25.9743 29.181 30.4287 25.363 36.46C21.379 42.602 19.387 48.9653 19.387 55.55ZM67.859 30.982C68.2463 30.982 68.44 30.7053 68.44 30.152C68.44 29.5987 68.274 28.9347 67.942 28.16C66.5033 25.67 64.2347 23.8163 61.136 22.599C58.0373 21.3817 54.8833 20.773 51.674 20.773C51.01 20.773 50.014 20.8283 48.686 20.939L48.437 23.761C54.8557 25.089 60.97 27.3577 66.78 30.567C67.3333 30.8437 67.693 30.982 67.859 30.982ZM47.441 21.022C45.117 21.4093 43.125 21.935 41.465 22.599C45.283 23.2077 47.2473 23.512 47.358 23.512C47.4133 22.9587 47.441 22.1287 47.441 21.022Z" fill="white"/>
<path d="M272.808 78C273.171 75.824 273.352 73.6178 273.352 71.3813V51.9787C273.352 49.8631 273.171 47.6569 272.808 45.36L278.52 44.272C278.036 46.2667 277.795 48.4729 277.795 50.8907V71.3813C277.795 73.7387 278.036 75.9449 278.52 78H272.808ZM307.964 71.3813C307.964 73.9804 308.176 76.1867 308.599 78H302.887C302.947 77.6373 302.978 77.2444 302.978 76.8213C303.038 76.3982 303.129 75.9751 303.25 75.552C301.618 77.4862 299.23 78.4533 296.087 78.4533C292.944 78.4533 290.466 77.2747 288.652 74.9173C287.262 73.1644 286.567 70.8978 286.567 68.1173V61.0453C286.567 58.8693 286.386 56.6631 286.023 54.4267L291.735 53.3387C291.251 55.3333 291.01 57.5396 291.01 59.9573V68.1173C291.01 70.2933 291.342 71.8951 292.007 72.9227C293.155 74.736 294.908 75.6427 297.266 75.6427C301.436 75.6427 303.522 73.1342 303.522 68.1173V61.0453C303.522 58.8693 303.31 56.6631 302.887 54.4267L308.599 53.3387C308.176 55.3333 307.964 57.5396 307.964 59.9573V71.3813ZM316.105 78C316.468 75.824 316.649 73.6178 316.649 71.3813V61.0453C316.649 58.8693 316.468 56.6631 316.105 54.4267L321.817 53.3387C321.333 55.3333 321.092 57.5396 321.092 59.9573V71.3813C321.092 73.7387 321.333 75.9449 321.817 78H316.105ZM318.916 50.1653C318.13 50.1653 317.465 49.8933 316.921 49.3493C316.377 48.7449 316.105 48.0498 316.105 47.264C316.105 46.4782 316.347 45.7529 316.83 45.088C317.495 44.544 318.19 44.272 318.916 44.272C319.641 44.272 320.306 44.544 320.91 45.088C321.515 45.632 321.817 46.3271 321.817 47.1733C321.817 47.9591 321.515 48.6542 320.91 49.2587C320.366 49.8631 319.701 50.1653 318.916 50.1653ZM339.928 59.1413C339.021 57.0862 337.661 56.0587 335.848 56.0587C335.062 56.0587 334.337 56.2702 333.672 56.6933C333.007 57.056 332.674 57.7511 332.674 58.7787C332.674 59.7458 333.43 60.6827 334.941 61.5893L339.021 64.0373C341.801 65.6693 343.192 67.7849 343.192 70.384C343.192 72.9227 342.315 74.9173 340.562 76.368C338.809 77.7582 336.875 78.4533 334.76 78.4533C332.221 78.3324 330.649 78.0907 330.045 77.728C328.715 76.8818 327.778 76.1867 327.234 75.6427V69.84H327.416C328.806 73.7084 331.224 75.6427 334.669 75.6427C335.999 75.6427 337.087 75.2196 337.933 74.3733C338.779 73.5271 339.202 72.4391 339.202 71.1093C339.202 69.7191 338.447 68.5707 336.936 67.664L333.4 65.5787C330.377 63.7653 328.866 61.5893 328.866 59.0507C328.866 57.2978 329.592 55.8169 331.042 54.608C332.13 53.7618 333.581 53.3387 335.394 53.3387C337.208 53.3387 338.779 53.7618 340.109 54.608V59.1413H339.928Z" fill="black"/>
<rect x="186" width="81" height="100" fill="black"/>
<path d="M271.763 73.308C271.763 76.1853 269.992 78.5647 266.451 80.446C263.518 81.9953 260.337 82.77 256.906 82.77C253.531 82.77 249.796 81.8847 245.701 80.114C241.606 78.3987 236.626 75.9363 230.761 72.727C224.896 69.5177 220.884 67.4427 218.726 66.502C215.461 70.2647 212.224 73.142 209.015 75.134C205.861 77.1813 202.181 78.205 197.976 78.205C195.707 78.205 193.439 77.4027 191.17 75.798C188.901 74.1933 187.767 72.312 187.767 70.154C187.767 67.1107 189.289 64.8143 192.332 63.265C194.767 61.9923 197.672 61.356 201.047 61.356C204.422 61.356 208.683 62.1583 213.829 63.763C215.544 61.439 217.343 58.5063 219.224 54.965C218.837 55.0203 218.228 55.048 217.398 55.048C205.778 55.048 199.968 50.9257 199.968 42.681C199.968 38.3097 202.292 34.879 206.94 32.389C207.161 32.223 207.355 32.14 207.521 32.14C207.742 32.14 207.853 32.223 207.853 32.389C207.853 32.4997 207.825 32.5827 207.77 32.638C204.284 33.9107 202.541 36.5667 202.541 40.606C202.541 44.59 204.478 47.827 208.351 50.317C211.671 52.475 215.517 53.5817 219.888 53.637C221.105 51.3683 223.208 47.0247 226.196 40.606C229.184 34.1873 231.702 29.4563 233.749 26.413C238.563 19.2197 243.709 15.623 249.187 15.623C249.796 15.623 250.1 15.706 250.1 15.872C250.1 16.038 249.796 16.121 249.187 16.121C243.93 16.121 238.923 19.8283 234.164 27.243C232.615 29.733 230.291 34.298 227.192 40.938C224.093 47.5227 222.046 51.7557 221.05 53.637C222.821 53.637 224.619 53.471 226.445 53.139C226.832 52.6963 227.635 51.0363 228.852 48.159C229.903 45.337 230.595 43.5663 230.927 42.847C238.674 25.1403 247.306 16.287 256.823 16.287C258.76 16.287 260.309 16.951 261.471 18.279C262.633 19.607 263.214 21.2947 263.214 23.342C263.214 31.5867 254.195 40.3293 236.156 49.57C233.832 50.7873 232.283 51.562 231.508 51.894C230.789 52.1707 230.291 52.392 230.014 52.558C229.571 52.7793 228.714 53.1667 227.441 53.72C226.998 54.4947 225.919 56.21 224.204 58.866C222.544 61.4667 221.05 63.6523 219.722 65.423L241.053 73.723C249.796 77.043 256.934 78.703 262.467 78.703C268.056 78.703 270.85 77.126 270.85 73.972C270.85 71.9247 269.909 69.4623 268.028 66.585C269.024 67.1937 269.854 68.162 270.518 69.49C271.348 70.8733 271.763 72.146 271.763 73.308ZM262.301 22.18C262.301 20.9627 261.803 20.0773 260.807 19.524C259.866 18.9707 258.732 18.694 257.404 18.694C251.207 18.694 243.515 26.579 234.33 42.349C231.619 46.997 229.571 50.4 228.188 52.558C233.555 50.6767 240.306 46.4437 248.44 39.859C257.681 32.389 262.301 26.496 262.301 22.18ZM199.055 73.474C198.28 73.474 197.893 73.3633 197.893 73.142C197.893 72.976 198.28 72.893 199.055 72.893C204.201 72.893 208.932 70.071 213.248 64.427C208.157 62.767 204.173 61.937 201.296 61.937C198.474 61.937 195.79 62.518 193.245 63.68C190.7 64.842 189.427 66.5297 189.427 68.743C189.427 71.0117 190.506 72.8377 192.664 74.221C194.379 75.4383 196.565 76.047 199.221 76.047C201.877 76.047 205.225 74.9957 209.264 72.893C213.303 70.7903 216.153 68.577 217.813 66.253C217.038 65.755 215.821 65.2293 214.161 64.676C209.624 70.5413 204.588 73.474 199.055 73.474ZM225.864 54.301C223.263 54.633 221.437 54.8267 220.386 54.882C218.615 58.0913 216.734 61.1347 214.742 64.012C215.295 64.2333 216.54 64.6207 218.477 65.174C219.252 64.3993 221.714 60.775 225.864 54.301Z" fill="white"/>
<circle cx="318.5" cy="47.5" r="3.5" fill="white"/>
<path d="M324.5 43L315.5 49V52L324.5 45.5V43Z" fill="black"/>
</svg>
